src/components/class-icon/images/Ranger.svg

<?xml version="1.0" encoding="UTF-8"?>
<svg width="56px" height="100px" viewBox="0 0 56 100" version="1.1" xmlns="http://www.w3.org/2000/svg" xmlns:xlink="http://www.w3.org/1999/xlink">
    <!-- Generator: Sketch 53.2 (72643) - https://sketchapp.com -->
    <title>ClassIcon/Ranger</title>
    <desc>Created with Sketch.</desc>
    <g id="ClassIcon/Ranger" stroke="none" stroke-width="1" fill="none" fill-rule="evenodd">
        <g transform="translate(-0.000000, 0.000000)" fill="#00040C" fill-rule="nonzero" id="Path">
            <path d="M0.158415842,4.44554455 C0.298794925,3.28323633 0.503732081,2.12963847 0.772277228,0.99009901 C1.37623762,2.79207921 1.76237624,4.67326733 2.43564356,6.45544554 C3.83168317,9.21782178 5.05940594,12.0792079 6.55445545,14.8019802 C10.039604,20 13.4851485,25.2475248 16.960396,30.4356436 C20.3069307,34.3960396 23.6732673,38.2673267 27.1287129,42.1089109 C24.8712871,44.4653465 22.6930693,46.9108911 20.5148515,49.3465347 C17.4752475,47.3663366 14.7920792,44.9108911 11.970297,42.6435644 C10.3267327,41.4653465 9.30693069,39.6732673 8.00990099,38.1782178 C7.27213482,37.2030908 6.69397175,36.1169463 6.2970297,34.960396 C5.06301463,32.0486508 3.98232693,29.074281 3.05940594,26.049505 C2.34653465,22.7425743 1.34653465,19.4752475 1.07920792,16.0792079 C0.590759076,12.2112211 0.280528053,8.32343234 0.148514851,4.41584158"></path>
            <path d="M54.6831683,0.99009901 C54.950495,2.0990099 55.1287129,3.22772277 55.2871287,4.35643564 C55.1683168,9.1980198 54.6336634,14.029703 54.039604,18.8415842 C53.6534653,20.6930693 53.2079208,22.5346535 52.8019802,24.3861386 C52.2167669,26.7013815 51.5027852,28.9821563 50.6633663,31.2178218 C50.039604,33.1980198 49.0693069,35.0891089 48.2574257,37.019802 C47.1248041,38.6365447 45.9086308,40.1931144 44.6138614,41.6831683 C40.6050321,45.2527744 36.3284785,48.50984 31.8217822,51.4257426 C30.3465347,52.5346535 28.970297,53.7524752 27.5544554,54.9306931 C25.8217822,56.990099 24.0990099,59.0594059 22.4059406,61.1485149 C20.6930693,63.8316832 19.039604,66.5445545 17.3663366,69.2475248 C16.1287129,71.7029703 14.960396,74.1980198 13.7524752,76.6732673 C12.4059406,79.8019802 11.1881188,82.990099 9.9009901,86.1386139 C9.08910891,88.3960396 8.41584158,90.7029703 7.64356436,92.970297 C7.17821782,94.2871287 7.33663366,95.7128713 7.00990099,97.0594059 C6.46534653,97.7227723 5.3960396,98.049505 5.43564356,99.039604 C4.13861386,98.7722772 3.02970297,100.683168 1.88118812,99.6534653 C2.59405941,97.7821782 -0.475247525,96.8811881 0.326732673,95.049505 C0.326732673,94.1782178 1.25742574,93.9009901 1.8019802,93.3960396 L1.38613861,92.6237624 C1.82178218,91.4158416 2.26732673,90.2079208 2.73267327,89.009901 C3.16831683,88.019802 2.45544554,87.1089109 2.2970297,86.1683168 C3.02569822,85.6480834 3.9075114,85.3866764 4.8019802,85.4257426 C4.95541471,84.4852712 5.17039804,83.5558817 5.44554455,82.6435644 C6.77227723,79.3663366 8.07920792,76.0990099 9.40594059,72.8217822 C9.77227723,71.950495 9.81188119,71 10.0990099,70.1188119 C10.4158416,69.5643564 11.0891089,69.4059406 11.6138614,69.1287129 C12.526239,68.5262569 13.3325299,67.7768413 14,66.9108911 C14.8811881,66.1980198 14.3960396,64.9306931 14.4554455,63.9405941 C14.1782178,63.4950495 13.5445545,63.3762376 13.1089109,63.0891089 C14.3465347,60.6039604 15.960396,58.3168317 17.3762376,55.9306931 C18.9974649,53.1011579 20.8380909,50.403118 22.8811881,47.8613861 C24.7128713,45.8811881 26.3663366,43.8415842 28.3267327,42.039604 C31.7920792,38.2079208 35.1584158,34.2772277 38.5148515,30.3564356 C41.6831683,25.6732673 44.7623762,20.9306931 47.9108911,16.2277228 C49.8910891,13.4257426 51.0891089,10.1485149 52.6831683,7.10891089 C53.6732673,5.12871287 53.980198,2.96039604 54.6633663,0.910891089"></path>
            <path d="M31.8118812,52.2970297 C32.7227723,51.6237624 33.7326733,51.1188119 34.6930693,50.5346535 C36.970297,54.1386139 39.1683168,57.7920792 41.4356436,61.4257426 C41.8019802,61.990099 42.029703,62.6138614 42.3663366,63.1881188 C41.8974689,63.3989776 41.4498798,63.6542692 41.029703,63.950495 C40.9307151,64.7759207 40.9307151,65.6102179 41.029703,66.4356436 C41.6868547,67.2297862 42.3841324,67.9898519 43.1188119,68.7128713 C43.7821782,69.3663366 44.9405941,69.3861386 45.3960396,70.2574257 C45.5895236,71.3388826 45.884559,72.399684 46.2772277,73.4257426 C47.5148515,76.4950495 48.7425743,79.5643564 49.990099,82.6237624 C50.2810559,83.5600091 50.5027758,84.516383 50.6534653,85.4851485 C51.551186,85.4446148 52.4366002,85.7060561 53.1683168,86.2277228 C52.8879539,86.9860563 52.692051,87.7729882 52.5841584,88.5742574 C53.029703,89.960396 53.5742574,91.3069307 54.0792079,92.6831683 L53.6633663,93.4554455 C54.2079208,93.960396 55.0990099,94.2376238 55.1386139,95.1089109 C55.9306931,96.9405941 52.8712871,97.8415842 53.5742574,99.7029703 C52.4257426,100.693069 51.3267327,98.8316832 50.029703,99.0990099 C50.029703,98.1089109 49.039604,97.7524752 48.4554455,97.1188119 C48.1287129,95.7722772 48.2871287,94.3465347 47.8217822,93.029703 C47.039604,90.7623762 46.3663366,88.4554455 45.5643564,86.1980198 C44.2772277,83.0693069 43.0594059,79.9108911 41.7326733,76.7920792 C40.5148515,74.2970297 39.3366337,71.7722772 38.0792079,69.2970297 C36.4422442,66.6567657 34.7920792,64.0165017 33.1287129,61.3762376 C31.5940594,59.3960396 29.9405941,57.5346535 28.3861386,55.5841584 C29.5049505,54.4950495 30.6633663,53.4455446 31.8019802,52.3861386"></path>
            <path d="M23.9207921,71.2871287 C24.3316241,70.5335321 25.0580449,70.0032449 25.9009901,69.8415842 C25.5291918,70.5065676 25.4030236,71.2811003 25.5445545,72.029703 C25.7821782,72.4950495 26.2970297,72.7623762 26.4752475,73.2673267 C27.0954118,74.9001632 27.5143395,76.6024726 27.7227723,78.3366337 C27.5841584,79.9306931 27.3267327,81.5247525 27.1485149,83.1188119 C26.2475248,83.2970297 25.2970297,83.9207921 24.4059406,83.3960396 C23.2079208,83.1485149 22.6534653,82.009901 21.8910891,81.1881188 C21.5284815,80.8633067 21.261452,80.4456451 21.1188119,79.980198 C20.907152,78.1401769 20.9638494,76.2791692 21.2871287,74.4554455 C22.1188119,73.3663366 23.3465347,72.5841584 23.950495,71.3168317"></path>
            <path d="M30.5247525,69.8712871 C31.1980198,70.1386139 32.009901,70.3366337 32.3465347,71.039604 C32.960396,72.5346535 34.5148515,73.3465347 35.2475248,74.7029703 C35.5494402,76.568723 35.5494402,78.4708809 35.2475248,80.3366337 C34.2574257,81.4950495 33.4554455,83.1188119 31.8316832,83.4851485 C30.990099,83.8613861 30.1584158,83.2475248 29.3366337,83.1188119 C29.1485149,81.5247525 28.8910891,79.9306931 28.7524752,78.3366337 C28.9449354,76.6045639 29.3472257,74.9023107 29.950495,73.2673267 C30.1287129,72.7623762 30.6435644,72.4950495 30.8811881,72.029703 C31.0270748,71.2811617 30.9006619,70.5051269 30.5247525,69.8415842"></path>
            <path d="M17.5445545,79.5841584 C17.9679986,78.6237971 18.6857136,77.8228687 19.5940594,77.2970297 C19.1260006,79.1276988 19.5723466,81.0717018 20.7920792,82.5148515 C21.2493032,83.2902558 21.5833173,84.1319716 21.7821782,85.009901 C22.1807808,85.9554578 22.205552,87.0170789 21.8514851,87.980198 C21.0594059,89.3663366 19.4752475,90.8316832 17.7722772,90.1485149 C16.7142201,89.2352203 15.8664203,88.1036946 15.2871287,86.8316832 C14.8817895,85.7538245 14.9281924,84.5580569 15.4158416,83.5148515 C15.9928027,82.1476301 16.7094788,80.8436776 17.5544554,79.6237624"></path>
            <path d="M36.8415842,77.2970297 C37.7243583,77.8069455 38.4188807,78.5882832 38.8217822,79.5247525 C39.6804796,80.7674781 40.4103211,82.0944627 41,83.4851485 C41.4876492,84.5283539 41.5340521,85.7241215 41.1287129,86.8019802 C40.5556417,88.0640656 39.7182924,89.1884097 38.6732673,90.0990099 C36.990099,90.7722772 35.4356436,89.3465347 34.6336634,88 C33.9108911,86.3564356 34.7821782,84.6732673 35.3069307,83.1188119 C36.4851485,81.4356436 37.5643564,79.3960396 36.8415842,77.2871287"></path>
            <path d="M24.0693069,86.2277228 C25.990099,85.2376238 28.3168317,84.5940594 30.4158416,85.4356436 C31.1980198,85.8415842 32.3960396,85.8217822 32.7128713,86.7524752 C33.3663366,88.029703 34.039604,89.2970297 34.6930693,90.5445545 C35.5346535,91.8415842 37.0594059,92.3069307 38.4257426,92.8118812 C39.0289329,93.0822586 39.5313603,93.5361758 39.8613861,94.1089109 C39.0610576,95.694731 37.8154464,97.0126014 36.2772277,97.9009901 C35.5601958,98.2133192 34.753568,98.2520655 34.009901,98.009901 C31.6237624,97.5049505 29.2574257,96.5346535 26.7920792,96.9405941 C25.039604,97.3366337 23.3168317,97.8118812 21.5643564,98.1683168 C20.1089109,98.3069307 19.0891089,97.1782178 18.0594059,96.3366337 C17.4625315,95.6544174 16.9444129,94.9071309 16.5148515,94.1089109 C17.5049505,92.2277228 20.1683168,92.6039604 21.4059406,90.9108911 C22.3960396,89.4554455 23.0594059,87.7227723 24.039604,86.2277228"></path>
        </g>
    </g>
</svg>

<svg viewBox="0 0 56 100" xmlns="http://www.w3.org/2000/svg"><g fill="#00040C" fill-rule="nonzero"><path d="M.158 4.446C.298 3.283.504 2.13.772.99c.604 1.802.99 3.683 1.664 5.465 1.396 2.763 2.623 5.624 4.118 8.347C10.04 20 13.485 25.248 16.96 30.436A498.816 498.816 0 0 0 27.13 42.109c-2.258 2.356-4.436 4.802-6.614 7.238-3.04-1.98-5.723-4.436-8.545-6.703-1.643-1.179-2.663-2.97-3.96-4.466a11.545 11.545 0 0 1-1.713-3.218 90.584 90.584 0 0 1-3.238-8.91c-.712-3.307-1.712-6.575-1.98-9.97A127.373 127.373 0 0 1 .15 4.415"/><path d="M54.683.99c.267 1.109.446 2.238.604 3.366-.119 4.842-.653 9.674-1.247 14.486-.387 1.851-.832 3.693-1.238 5.544a64.178 64.178 0 0 1-2.139 6.832c-.623 1.98-1.594 3.871-2.406 5.802a56.772 56.772 0 0 1-3.643 4.663 105.04 105.04 0 0 1-12.792 9.743c-1.475 1.109-2.852 2.326-4.268 3.505a439.318 439.318 0 0 0-5.148 6.218c-1.713 2.683-3.366 5.396-5.04 8.099-1.237 2.455-2.406 4.95-3.614 7.425-1.346 3.129-2.564 6.317-3.851 9.466-.812 2.257-1.485 4.564-2.257 6.831-.466 1.317-.307 2.743-.634 4.09-.545.663-1.614.99-1.574 1.98-1.297-.268-2.406 1.643-3.555.613.713-1.87-2.356-2.772-1.554-4.603 0-.872.93-1.149 1.475-1.654l-.416-.772c.436-1.208.881-2.416 1.347-3.614.435-.99-.278-1.901-.436-2.842a4.01 4.01 0 0 1 2.505-.742c.153-.94.368-1.87.644-2.782 1.326-3.278 2.633-6.545 3.96-9.822.366-.872.406-1.822.693-2.703.317-.555.99-.713 1.515-.99A9.901 9.901 0 0 0 14 66.91c.881-.713.396-1.98.455-2.97-.277-.446-.91-.565-1.346-.852 1.238-2.485 2.851-4.772 4.267-7.158a62.376 62.376 0 0 1 5.505-8.07c1.832-1.98 3.485-4.02 5.446-5.821 3.465-3.832 6.831-7.763 10.188-11.684 3.168-4.683 6.247-9.425 9.396-14.128 1.98-2.802 3.178-6.08 4.772-9.12.99-1.98 1.297-4.148 1.98-6.197"/><path d="M31.812 52.297c.91-.673 1.92-1.178 2.881-1.762 2.277 3.604 4.475 7.257 6.743 10.89.366.565.594 1.189.93 1.763a8.05 8.05 0 0 0-1.336.762c-.1.826-.1 1.66 0 2.486a30.277 30.277 0 0 0 2.089 2.277c.663.653 1.822.673 2.277 1.544.194 1.082.489 2.143.881 3.169 1.238 3.069 2.466 6.138 3.713 9.198a20 20 0 0 1 .663 2.861 4.02 4.02 0 0 1 2.515.743 11 11 0 0 0-.584 2.346c.446 1.386.99 2.733 1.495 4.11l-.416.771c.545.505 1.436.783 1.476 1.654.792 1.832-2.268 2.733-1.565 4.594-1.148.99-2.247-.871-3.544-.604 0-.99-.99-1.347-1.575-1.98-.326-1.347-.168-2.772-.633-4.09-.782-2.267-1.456-4.574-2.258-6.831-1.287-3.129-2.505-6.287-3.831-9.406-1.218-2.495-2.396-5.02-3.654-7.495-1.637-2.64-3.287-5.28-4.95-7.92-1.535-1.981-3.188-3.842-4.743-5.793 1.119-1.089 2.277-2.138 3.416-3.198M23.92 71.287a2.871 2.871 0 0 1 1.981-1.445 3.248 3.248 0 0 0-.356 2.188c.237.465.752.732.93 1.237a21.505 21.505 0 0 1 1.248 5.07c-.139 1.594-.396 3.188-.574 4.782-.901.178-1.852.802-2.743.277-1.198-.247-1.753-1.386-2.515-2.208a2.673 2.673 0 0 1-.772-1.208 19.129 19.129 0 0 1 .168-5.525c.832-1.089 2.06-1.87 2.663-3.138M30.525 69.871c.673.268 1.485.466 1.822 1.169.613 1.495 2.168 2.307 2.9 3.663a17.634 17.634 0 0 1 0 5.634c-.99 1.158-1.792 2.782-3.415 3.148-.842.376-1.674-.237-2.495-.366-.188-1.594-.446-3.188-.585-4.782a21.505 21.505 0 0 1 1.198-5.07c.179-.505.694-.772.931-1.237a3.198 3.198 0 0 0-.356-2.188M17.545 79.584a4.95 4.95 0 0 1 2.05-2.287 5.842 5.842 0 0 0 1.197 5.218c.457.775.791 1.617.99 2.495a4.05 4.05 0 0 1 .07 2.97c-.793 1.386-2.377 2.852-4.08 2.169a9.683 9.683 0 0 1-2.485-3.317 4.277 4.277 0 0 1 .129-3.317 21.545 21.545 0 0 1 2.138-3.891M36.842 77.297a4.733 4.733 0 0 1 1.98 2.228A22.238 22.238 0 0 1 41 83.485a4.277 4.277 0 0 1 .129 3.317 9.683 9.683 0 0 1-2.456 3.297c-1.683.673-3.237-.752-4.04-2.099-.722-1.644.15-3.327.674-4.881 1.178-1.683 2.257-3.723 1.535-5.832"/><path d="M24.07 86.228c1.92-.99 4.247-1.634 6.346-.792.782.406 1.98.386 2.297 1.316.653 1.278 1.327 2.545 1.98 3.793.842 1.297 2.366 1.762 3.733 2.267.603.27 1.105.724 1.435 1.297a9.129 9.129 0 0 1-3.584 3.792 3.198 3.198 0 0 1-2.267.109c-2.386-.505-4.753-1.475-7.218-1.07-1.752.397-3.475.872-5.228 1.228-1.455.139-2.475-.99-3.505-1.831a12.07 12.07 0 0 1-1.544-2.228c.99-1.881 3.653-1.505 4.89-3.198.991-1.456 1.654-3.188 2.635-4.683"/></g></svg>
